blockchains/ethereum/assets/0x50327c6c5a14DCaDE707ABad2E27eB517df87AB5/logo.svg

<svg fill="none" height="250" viewBox="0 0 250 250" width="250" xmlns="http://www.w3.org/2000/svg" xmlns:xlink="http://www.w3.org/1999/xlink"><clipPath id="a"><path d="m0 0h250v250h-250z"/></clipPath><g clip-path="url(#a)"><path d="m249.581 125.29c0 68.694-55.685 124.378-124.378 124.378-68.6942 0-124.378293-55.684-124.378293-124.378 0-68.6926 55.684093-124.377891 124.378293-124.377891 68.693 0 124.378 55.685291 124.378 124.377891z" fill="#020100"/><path d="m203.105 92.9015c-7.026-4.9144-14.54-10.1537-21.891-15.3524-.163-.1218-.325-.2437-.528-.3655-.813-.6092-1.747-1.2591-2.884-1.6246l-.081-.0406c-19.658-4.752-39.64-9.6257-58.973-14.3371-17.546-4.2645-35.0507-8.5291-52.5963-12.7936-.4468-.1219-.8935-.2437-1.3809-.3656-1.584-.4467-3.4117-.9341-5.3612-.6904-.5686.0812-1.056.2843-1.5027.5686l-.4874.4061c-.7717.7311-1.1778 1.6652-1.3809 2.1932l-.1219.325v1.8682l.0813.2843c11.0878 31.0704 22.46 62.5879 33.426 93.0889 8.4479 23.476 17.221 47.804 25.79 71.686.528 1.624 2.031 2.68 3.899 2.843h.407c1.746 0 3.289-.853 4.061-2.234l32.167-46.91c7.839-11.413 15.677-22.867 23.516-34.279 3.209-4.671 6.417-9.382 9.626-14.053 5.28-7.717 10.722-15.677 16.124-23.4348l.284-.4061v-.4874c.122-1.4215.163-4.3458-2.193-5.8892zm-37.691 17.0985c-7.554 3.94-15.271 8.002-23.028 12.022 4.508-4.833 9.057-9.707 13.565-14.54 5.646-6.092 11.535-12.3873 17.302-18.5607l.122-.1219c.487-.6498 1.096-1.259 1.746-1.9089.447-.4467.934-.8935 1.381-1.4215 3.006 2.0714 6.052 4.1833 8.976 6.2547 2.112 1.5028 4.265 3.0055 6.458 4.5083-8.935 4.549-17.871 9.22-26.522 13.768zm-19.414-1.949c-5.807 6.295-11.818 12.753-17.789 19.129-11.575-14.052-23.394-28.3081-34.8474-42.0765-5.1987-6.2547-10.438-12.55-15.6367-18.8047l-.0406-.0406c-1.1778-1.3403-2.315-2.8024-3.4523-4.1833-.731-.9342-1.5027-1.8277-2.2744-2.7618 4.7113 1.2184 9.4633 2.3556 14.134 3.4522 4.1021.9748 8.3666 1.9901 12.55 3.0461 23.5564 5.7267 47.1534 11.4534 70.7104 17.1801-7.839 8.3667-15.718 16.8552-23.354 25.0595zm-20.429 79.158c.447-4.264.934-8.651 1.34-12.956.366-3.452.732-6.986 1.097-10.357.569-5.401 1.178-11.006 1.665-16.489l.122-.975c.406-3.493.812-7.108 1.056-10.722.447-.244.934-.488 1.462-.691.609-.284 1.219-.528 1.828-.893 9.382-4.915 18.764-9.829 28.187-14.703 9.382-4.874 19.007-9.91 28.552-14.906-8.692 12.591-17.424 25.303-25.872 37.691-7.27 10.6-14.743 21.526-22.175 32.289-2.925 4.305-5.971 8.691-8.855 12.915-3.249 4.712-6.579 9.545-9.828 14.378.406-4.874.893-9.788 1.421-14.581zm-56.6169-118.3108c-.528-1.4622-1.0966-2.9649-1.584-4.3864 10.966 13.2404 22.0133 26.5621 32.7759 39.4772 5.565 6.702 11.129 13.363 16.693 20.105 1.097 1.259 2.193 2.599 3.249 3.899 1.381 1.665 2.762 3.411 4.265 5.077-.488 4.183-.894 8.407-1.341 12.468-.284 2.843-.568 5.686-.893 8.57v.041c-.122 1.827-.366 3.655-.569 5.442-.284 2.478-.934 8.082-.934 8.082l-.04.285c-.731 8.204-1.625 16.489-2.478 24.531-.365 3.331-.69 6.742-1.056 10.154-.203-.609-.447-1.219-.65-1.787-.609-1.625-1.218-3.331-1.787-4.996l-4.346-12.062c-13.768-38.3-27.5365-76.559-41.3049-114.8998z" fill="#fff"/></g></svg>

<svg width="250" height="250" viewBox="0 0 250 250" fill="none" xmlns="http://www.w3.org/2000/svg">
<g clip-path="url(#clip0_8_302)">
<path d="M249.581 125.29C249.581 193.984 193.896 249.668 125.203 249.668C56.5088 249.668 0.824707 193.984 0.824707 125.29C0.824707 56.5974 56.5088 0.912109 125.203 0.912109C193.896 0.912109 249.581 56.5974 249.581 125.29Z" fill="#020100"/>
<path d="M203.105 92.9015C196.079 87.9871 188.565 82.7478 181.214 77.5491C181.051 77.4273 180.889 77.3054 180.686 77.1836C179.873 76.5744 178.939 75.9245 177.802 75.559L177.721 75.5184C158.063 70.7664 138.081 65.8927 118.748 61.1813C101.202 56.9168 83.6973 52.6522 66.1517 48.3877C65.7049 48.2658 65.2582 48.144 64.7708 48.0221C63.1868 47.5754 61.3591 47.088 59.4096 47.3317C58.841 47.4129 58.3536 47.616 57.9069 47.9003L57.4195 48.3064C56.6478 49.0375 56.2417 49.9716 56.0386 50.4996L55.9167 50.8246V52.6928L55.998 52.9771C67.0858 84.0475 78.458 115.565 89.424 146.066C97.8719 169.542 106.645 193.87 115.214 217.752C115.742 219.376 117.245 220.432 119.113 220.595H119.52C121.266 220.595 122.809 219.742 123.581 218.361L155.748 171.451C163.587 160.038 171.425 148.584 179.264 137.172C182.473 132.501 185.681 127.79 188.89 123.119C194.17 115.402 199.612 107.442 205.014 99.6842L205.298 99.2781V98.7907C205.42 97.3692 205.461 94.4449 203.105 92.9015ZM165.414 110C157.86 113.94 150.143 118.002 142.386 122.022C146.894 117.189 151.443 112.315 155.951 107.482C161.597 101.39 167.486 95.0947 173.253 88.9213L173.375 88.7994C173.862 88.1496 174.471 87.5404 175.121 86.8905C175.568 86.4438 176.055 85.997 176.502 85.469C179.508 87.5404 182.554 89.6523 185.478 91.7237C187.59 93.2265 189.743 94.7292 191.936 96.232C183.001 100.781 174.065 105.452 165.414 110ZM146 108.051C140.193 114.346 134.182 120.804 128.211 127.18C116.636 113.128 104.817 98.8719 93.3636 85.1035C88.1649 78.8488 82.9256 72.5535 77.7269 66.2988L77.6863 66.2582C76.5085 64.9179 75.3713 63.4558 74.234 62.0749C73.503 61.1407 72.7313 60.2472 71.9596 59.3131C76.6709 60.5315 81.4229 61.6687 86.0936 62.7653C90.1957 63.7401 94.4602 64.7554 98.6436 65.8114C122.2 71.5381 145.797 77.2648 169.354 82.9915C161.515 91.3582 153.636 99.8467 146 108.051ZM125.571 187.209C126.018 182.945 126.505 178.558 126.911 174.253C127.277 170.801 127.643 167.267 128.008 163.896C128.577 158.495 129.186 152.89 129.673 147.407L129.795 146.432C130.201 142.939 130.607 139.324 130.851 135.71C131.298 135.466 131.785 135.222 132.313 135.019C132.922 134.735 133.532 134.491 134.141 134.126C143.523 129.211 152.905 124.297 162.328 119.423C171.71 114.549 181.335 109.513 190.88 104.517C182.188 117.108 173.456 129.82 165.008 142.208C157.738 152.808 150.265 163.734 142.833 174.497C139.908 178.802 136.862 183.188 133.978 187.412C130.729 192.124 127.399 196.957 124.15 201.79C124.556 196.916 125.043 192.002 125.571 187.209ZM68.9541 68.8982C68.4261 67.436 67.8575 65.9333 67.3701 64.5118C78.3361 77.7522 89.3834 91.0739 100.146 103.989C105.711 110.691 111.275 117.352 116.839 124.094C117.936 125.353 119.032 126.693 120.088 127.993C121.469 129.658 122.85 131.404 124.353 133.07C123.865 137.253 123.459 141.477 123.012 145.538C122.728 148.381 122.444 151.224 122.119 154.108V154.149C121.997 155.976 121.753 157.804 121.55 159.591C121.266 162.069 120.616 167.673 120.616 167.673L120.576 167.958C119.845 176.162 118.951 184.447 118.098 192.489C117.733 195.82 117.408 199.231 117.042 202.643C116.839 202.034 116.595 201.424 116.392 200.856C115.783 199.231 115.174 197.525 114.605 195.86L110.259 183.798C96.491 145.498 82.7225 107.239 68.9541 68.8982Z" fill="white"/>
</g>
<defs>
<clipPath id="clip0_8_302">
<rect width="250" height="250" fill="white"/>
</clipPath>
</defs>
</svg>
